X:1
T:Title
%%score ( 1 2 ) { 3 | 4 }
L:1/8
Q:1/4=100
M:4/4
K:D
V:1 treble nm="Grand Piano, Soprano"
V:2 treble 
V:3 bass nm="Choir Pad, Bass"
V:4 bass 
V:1
 [FA]2 [Fd]2 [FA]2 [DG]2 | [DF]2 [DF]>[CE] [CE][=C^D] [^CE]2 | [CE][^DF] [EG]2 [CA]2 [Ec][GB] | %3
w: By~Edmund~Simon~Lorenz * * *|||
 [FA][EG] [DF]6 | [FA]2 [Fd]2 [FA]2 [DG]2 | [DF]2 [DF]>[DE] [DE][DA] [DB]2 | %6
w: |||
 [DB]2 [DB][DA] [Ec][DB] [CA]2 | [A,C]2 [A,D]6 | [FA]2 [FA]2 [FB]2 [DF]2 | %9
w: |||
 [FB]2 A-[FA-] [FA-][FA-] [FA]2 | [FA]2 [FA]2 [FB]2 [DF][FA] | [FB][Fd]c-[Gc-] [Gc-][Gc-] [Gc]2 | %12
w: |||
 [Ge]2 [Fd]2 [FA]2 [DG]2 | [DF]2 [DF]>[DE] [DE][DG] [DB]2 | [DB]2 [DB][DA] [Ec][DB] [CA]2 | %15
w: |||
 [A,C]2 [A,D]6- | [A,D]2 z2 z4 |] %17
w: ||
V:2
 x8 | x8 | x8 | x8 | x8 | x8 | x8 | x8 | x8 | z2 .F2 z4 | x8 | z2 .G2 z4 | x8 | x8 | x8 | x8 | %16
 x8 |] %17
V:3
 A,2 A,2 D2 B,2 | A,2 A,>G, G,F, G,2 | A,D C2 E,2 A,C | CA, A,6 | A,2 A,2 D2 B,2 | %5
 A,2 B,>B, B,B, G,2 | G,2 F,F, F,F, E,2 | G,2 F,6 | D2 D2 D2 A,2 | D2 DD DD D2 | %10
 D2 D2 D2[K:bass] A,A, | A,A,A,A, A,A, A,2 | A,2 A,2 D2 B,2 | A,2 B,>B, B,B, G,2 | %14
 G,2 F,F, F,E, E,2 | G,2 F,6- | F,2 z2 z4 |] %17
V:4
 D,2 D,2 D,2 D,2 | D,2 A,,>A,, A,,A,, A,,2 | A,,2 A,,2 A,,2 A,,A,, | A,,A,, D,6 | D,2 D,2 D,2 D,2 | %5
 D,2 G,,>G,, G,,G,, G,,2 | G,,2 A,,A,, A,,A,, A,,2 | A,,2 D,6 | D,2 D,2 D,2 D,2 | %9
 D,2 D,D, D,D, D,2 | D,2 D,2 D,2 D,D, | D,D,E,E, E,C, A,,2 | A,,2 D,2 D,2 D,2 | %13
 D,2 F,,>G,, G,,G,, G,,2 | G,,2 A,,A,, A,,A,, A,,2 | A,,2 D,6- | D,2 z2 z4 |] %17

